X: 1
P: Bonnie Isle o'Whalsay
R: reel
C: Shetland, from Silver Bow (Tom Anderson et al)
C: arr. T. Traub 8-22-2004
M: 4/4
L: 1/8
K: D
"A"edcA "E"B-Bed|"A"cAAc "E"BE-E2|"A"edcA "E"B2 ed |"A"cA"E"B^G "A"A2-Ae-|"A"edcA "E"B-Bed|
"A"cAAc "E"BE-E2|"A"edcA "E"B2 ed |"A"cA"E"B^G "A"A2-A2|| "A"cde=g "D"fded|"A"cAAc "G"B=GGB|
"A"cde=g "D"fded|"E"cAB^G "A"A2 AB|"A"cde=g "D"fded|"A"cAAc "G"B=GGB|"A"cdef =gage|"G"dB=GB "A"A2-A |]
